public/logos/TL.svg

<?xml version="1.0" encoding="UTF-8"?>
<svg xmlns="http://www.w3.org/2000/svg" xmlns:xlink="http://www.w3.org/1999/xlink" width="176pt" height="32.21pt" viewBox="0 0 176 32.21" version="1.1">
<g id="surface1">
<path style=" stroke:none;fill-rule:nonzero;fill:rgb(13.540649%,22.479248%,42.703247%);fill-opacity:1;" d="M 0 31.703125 C 0 31.703125 134.304688 31.621094 134.941406 31.597656 C 135.578125 31.574219 137.367188 31.792969 140.859375 29.34375 C 144.679688 26.671875 165.304688 2.101562 165.304688 2.101562 C 165.304688 2.101562 166.449219 0.957031 167.089844 0.574219 C 167.722656 0.195312 168.488281 0.00390625 169.445312 0.00390625 C 169.824219 0.00390625 176 0.00390625 176 0.00390625 L 167.023438 32.085938 L 0 32.210938 L 0 31.703125 "/>
<path style=" stroke:none;fill-rule:nonzero;fill:rgb(62.492371%,9.173584%,21.296692%);fill-opacity:1;" d="M 164.160156 14.582031 C 164.160156 14.582031 166.355469 15.546875 165.496094 17.699219 C 164.605469 19.925781 155.121094 21.132812 154.484375 22.601562 C 154 23.714844 157.921875 24.191406 157.921875 24.191406 C 157.921875 24.191406 152.191406 24.253906 153.277344 21.835938 C 154.265625 19.625 163.578125 18.964844 164.542969 17.761719 C 165.8125 16.171875 164.160156 14.582031 164.160156 14.582031 "/>
<path style=" stroke:none;fill-rule:nonzero;fill:rgb(100%,100%,100%);fill-opacity:1;" d="M 163.863281 27.050781 L 162.128906 25.707031 L 160.40625 26.957031 L 160.628906 24.78125 L 158.667969 23.839844 L 160.621094 23.007812 L 160.378906 20.820312 L 162.113281 22.167969 L 163.835938 20.917969 L 163.613281 23.09375 L 165.578125 24.035156 L 163.621094 24.863281 L 163.863281 27.050781 "/>
<path style=" stroke:none;fill-rule:nonzero;fill:rgb(100%,100%,100%);fill-opacity:1;" d="M 167.847656 20.867188 L 166.980469 20.519531 L 166.425781 21.234375 L 166.257812 20.320312 L 165.347656 20.167969 L 166.046875 19.597656 L 165.6875 18.734375 L 166.554688 19.078125 L 167.109375 18.367188 L 167.277344 19.277344 L 168.1875 19.429688 L 167.492188 20 L 167.847656 20.867188 "/>
<path style=" stroke:none;fill-rule:nonzero;fill:rgb(100%,100%,100%);fill-opacity:1;" d="M 159.785156 30.089844 L 158.976562 29.511719 L 158.21875 30.109375 L 158.277344 29.121094 L 157.371094 28.730469 L 158.242188 28.316406 L 158.09375 27.332031 L 158.902344 27.910156 L 159.660156 27.3125 L 159.601562 28.300781 L 160.507812 28.691406 L 159.636719 29.105469 L 159.785156 30.089844 "/>
<path style=" stroke:none;fill-rule:nonzero;fill:rgb(100%,100%,100%);fill-opacity:1;" d="M 161.632812 15.132812 L 160.820312 14.554688 L 160.0625 15.148438 L 160.125 14.160156 L 159.21875 13.769531 L 160.089844 13.359375 L 159.941406 12.371094 L 160.75 12.953125 L 161.503906 12.355469 L 161.445312 13.34375 L 162.351562 13.734375 L 161.484375 14.144531 L 161.632812 15.132812 "/>
<path style=" stroke:none;fill-rule:nonzero;fill:rgb(100%,100%,100%);fill-opacity:1;" d="M 155.5625 19.871094 L 154.609375 19.761719 L 154.253906 20.621094 L 153.835938 19.757812 L 152.890625 19.851562 L 153.425781 19.09375 L 152.832031 18.332031 L 153.785156 18.4375 L 154.140625 17.574219 L 154.558594 18.441406 L 155.503906 18.347656 L 154.96875 19.105469 L 155.5625 19.871094 "/>
<path style=" stroke:none;fill-rule:nonzero;fill:rgb(66.886902%,65.760803%,70.455933%);fill-opacity:1;" d="M 164.160156 14.582031 C 164.160156 14.582031 166.570312 15.433594 165.683594 17.570312 C 164.921875 19.417969 155.246094 20.753906 154.609375 22.21875 C 154.125 23.332031 157.921875 24.191406 157.921875 24.191406 C 157.921875 24.191406 152.488281 23.671875 153.273438 21.835938 C 154.230469 19.605469 163.980469 18.582031 164.859375 17.316406 C 166.003906 15.664062 164.160156 14.582031 164.160156 14.582031 "/>
<path style=" stroke:none;fill-rule:nonzero;fill:rgb(13.540649%,22.479248%,42.703247%);fill-opacity:1;" d="M 14.511719 24.320312 C 14.511719 24.320312 14.019531 25.191406 13.835938 25.464844 C 13.582031 25.847656 12.730469 25.761719 12.730469 25.761719 L 8.019531 25.761719 C 8.019531 25.761719 7.597656 25.675781 7.597656 25.378906 C 7.597656 25.085938 7.980469 24.320312 7.980469 24.320312 L 9.421875 21.390625 C 9.421875 21.390625 9.890625 20.625 10.273438 20.371094 C 10.652344 20.117188 11.332031 20.160156 11.332031 20.160156 L 16.890625 20.160156 Z M 24.058594 14.515625 C 23.679688 13.414062 22.023438 13.539062 22.023438 13.539062 L 9.421875 13.539062 L 7.808594 15.875 C 7.808594 15.875 8.65625 15.660156 9.164062 15.660156 C 9.675781 15.660156 17.441406 15.660156 17.441406 15.660156 C 17.441406 15.660156 18.332031 15.703125 18.671875 15.875 C 19.03125 16.054688 18.839844 16.46875 18.839844 16.46875 L 17.988281 17.996094 L 9.800781 17.953125 C 9.800781 17.953125 8.445312 17.867188 6.789062 18.628906 C 5.132812 19.394531 1.824219 24.914062 2.292969 27.203125 C 2.460938 28.039062 4.074219 27.878906 4.074219 27.878906 C 4.074219 27.878906 11.328125 27.878906 11.625 27.878906 C 11.921875 27.878906 12.558594 27.796875 13.617188 26.355469 C 13.578125 27.121094 13.363281 27.878906 13.363281 27.878906 L 18.203125 27.878906 C 18.03125 26.566406 22.164062 20.269531 23.71875 16.550781 C 24.027344 15.820312 24.328125 15.289062 24.058594 14.515625 "/>
<path style=" stroke:none;fill-rule:nonzero;fill:rgb(13.540649%,22.479248%,42.703247%);fill-opacity:1;" d="M 21.386719 27.878906 C 22.238281 26.90625 22.875 25.59375 22.875 25.59375 L 28.476562 14.980469 C 28.476562 14.980469 28.898438 14.261719 28.855469 13.539062 C 29.832031 13.539062 34.628906 13.539062 34.628906 13.539062 L 28.136719 25.464844 C 28.136719 25.464844 27.160156 26.949219 27.246094 27.878906 C 26.140625 27.878906 22.492188 27.878906 21.386719 27.878906 "/>
<path style=" stroke:none;fill-rule:nonzero;fill:rgb(13.540649%,22.479248%,42.703247%);fill-opacity:1;" d="M 30.214844 12.183594 C 30.933594 10.910156 31.488281 9.933594 31.996094 8.703125 C 33.566406 8.746094 35.265625 8.703125 37.003906 8.703125 C 36.621094 9.511719 35.644531 11.035156 35.136719 12.140625 C 33.820312 12.183594 31.402344 12.183594 30.214844 12.183594 "/>
<path style=" stroke:none;fill-rule:nonzero;fill:rgb(13.540649%,22.479248%,42.703247%);fill-opacity:1;" d="M 86.101562 27.878906 C 86.992188 26.863281 87.246094 26.523438 87.417969 26.144531 C 87.695312 25.515625 93.285156 15.117188 93.402344 14.855469 C 93.699219 14.175781 93.738281 13.539062 93.738281 13.539062 L 98.957031 13.539062 L 98.324219 14.898438 C 98.324219 14.898438 99.714844 13.539062 100.742188 13.539062 C 101.886719 13.539062 105.707031 13.539062 105.707031 13.539062 L 104.304688 16.550781 C 104.304688 16.550781 98.875 16.085938 97.855469 16.59375 C 96.875 17.085938 92.773438 25.695312 92.59375 26.058594 C 92.421875 26.398438 92.125 27.121094 92.210938 27.878906 C 90.429688 27.878906 87.882812 27.878906 86.101562 27.878906 "/>
<path style=" stroke:none;fill-rule:nonzero;fill:rgb(13.540649%,22.479248%,42.703247%);fill-opacity:1;" d="M 30.933594 27.878906 C 31.828125 26.863281 32.082031 26.523438 32.253906 26.144531 C 32.53125 25.515625 38.121094 15.117188 38.234375 14.855469 C 38.53125 14.175781 38.574219 13.539062 38.574219 13.539062 L 43.792969 13.539062 L 43.15625 14.898438 C 43.15625 14.898438 44.550781 13.539062 45.574219 13.539062 C 46.722656 13.539062 50.539062 13.539062 50.539062 13.539062 L 49.140625 16.550781 C 49.140625 16.550781 43.707031 16.085938 42.691406 16.59375 C 41.710938 17.085938 37.609375 25.695312 37.425781 26.058594 C 37.257812 26.398438 36.960938 27.121094 37.046875 27.878906 C 35.265625 27.878906 32.71875 27.878906 30.933594 27.878906 "/>
<path style=" stroke:none;fill-rule:nonzero;fill:rgb(13.540649%,22.479248%,42.703247%);fill-opacity:1;" d="M 45.066406 27.878906 C 45.703125 27.246094 46.835938 25.53125 46.679688 25.804688 C 46.167969 26.691406 52.027344 15.578125 52.363281 14.941406 C 52.6875 14.335938 52.832031 13.539062 52.832031 13.539062 L 58.179688 13.539062 L 57.542969 14.769531 C 57.542969 14.769531 58.773438 13.539062 59.449219 13.539062 C 61.957031 13.539062 66.835938 13.539062 66.835938 13.539062 C 66.835938 13.539062 68.449219 13.371094 68.789062 14.515625 C 69.375 16.5 64.414062 23.511719 63.144531 26.609375 C 62.96875 27.035156 62.890625 27.882812 62.890625 27.882812 L 56.777344 27.882812 C 56.777344 27.882812 57.492188 27.273438 57.667969 26.992188 C 58.179688 26.1875 62.886719 17.234375 62.886719 17.234375 C 62.886719 17.234375 63.398438 16.46875 63.183594 16.128906 C 62.953125 15.757812 62.507812 15.875 62.507812 15.875 L 58.390625 15.875 C 58.390625 15.875 57.625 15.792969 57.371094 15.960938 C 57.035156 16.183594 56.734375 16.851562 56.734375 16.851562 C 56.734375 16.851562 51.980469 25.507812 51.855469 25.890625 C 51.726562 26.273438 51.21875 27.035156 51.304688 27.882812 C 48.335938 27.878906 45.066406 27.878906 45.066406 27.878906 "/>
<path style=" stroke:none;fill-rule:nonzero;fill:rgb(13.540649%,22.479248%,42.703247%);fill-opacity:1;" d="M 83.597656 16.765625 L 79.480469 24.402344 C 79.480469 24.402344 79.253906 24.84375 78.929688 25.167969 C 78.589844 25.507812 78.164062 25.59375 78.164062 25.59375 L 72.902344 25.59375 C 72.902344 25.59375 72.605469 25.59375 72.5625 25.253906 C 72.53125 24.96875 72.777344 24.574219 72.777344 24.574219 L 77.0625 16.636719 C 77.0625 16.636719 77.191406 16.253906 77.574219 16 C 77.953125 15.746094 78.632812 15.875 78.632812 15.875 L 82.960938 15.875 C 82.960938 15.875 83.554688 15.789062 83.726562 16 C 83.894531 16.214844 83.597656 16.765625 83.597656 16.765625 Z M 88.988281 14.304688 C 88.394531 13.511719 86.863281 13.539062 86.863281 13.539062 L 77.273438 13.539062 C 77.273438 13.539062 75.265625 13.59375 74.21875 14.175781 C 72.691406 15.027344 71.96875 16.253906 71.96875 16.253906 L 67.851562 23.683594 C 67.851562 23.683594 66.75 25.71875 67.046875 26.820312 C 67.347656 27.9375 68.914062 27.882812 68.914062 27.882812 L 79.480469 27.882812 C 79.480469 27.882812 80.882812 28.097656 82.960938 26.738281 C 84.113281 25.984375 85.039062 23.808594 85.039062 23.808594 L 88.984375 16.46875 C 88.988281 16.46875 89.492188 14.984375 88.988281 14.304688 "/>
<path style=" stroke:none;fill-rule:nonzero;fill:rgb(13.540649%,22.479248%,42.703247%);fill-opacity:1;" d="M 109.734375 13.539062 L 111.265625 10.652344 L 116.78125 9.933594 L 114.828125 13.539062 L 120.046875 13.539062 L 118.984375 15.664062 L 113.765625 15.664062 L 109.097656 24.53125 C 109.097656 24.53125 108.792969 24.957031 108.847656 25.253906 C 108.886719 25.507812 109.3125 25.59375 109.3125 25.59375 C 109.3125 25.59375 112.582031 25.675781 115 25.335938 C 114.148438 26.523438 113.300781 27.878906 113.300781 27.878906 L 105.28125 27.878906 C 105.28125 27.878906 103.746094 28.109375 103.414062 26.863281 C 103.074219 25.589844 103.925781 24.316406 103.925781 24.316406 L 108.679688 15.660156 L 105.664062 15.660156 L 106.855469 13.539062 L 109.734375 13.539062 "/>
<path style=" stroke:none;fill-rule:nonzero;fill:rgb(13.540649%,22.479248%,42.703247%);fill-opacity:1;" d="M 115.847656 27.878906 C 117.121094 26.480469 126.285156 8.914062 126.414062 8.277344 C 128.492188 8.277344 131.84375 8.277344 131.84375 8.277344 L 128.574219 14.769531 C 128.574219 14.769531 129.214844 14.089844 129.59375 13.835938 C 129.976562 13.582031 130.871094 13.582031 130.871094 13.582031 L 137.449219 13.582031 C 137.449219 13.582031 138.960938 13.324219 139.398438 14.34375 C 139.78125 15.234375 139.144531 16.59375 139.144531 16.59375 C 139.144531 16.59375 133.5 27.078125 133.417969 27.878906 C 131.210938 27.878906 130.105469 27.878906 127.519531 27.878906 C 128.113281 27.203125 133.628906 16.851562 133.628906 16.851562 C 133.628906 16.851562 134.035156 16.253906 133.882812 16.042969 C 133.671875 15.746094 133.371094 15.789062 133.371094 15.789062 L 128.621094 15.789062 C 128.621094 15.789062 128.195312 15.832031 127.984375 16.042969 C 127.773438 16.253906 127.515625 16.765625 127.515625 16.765625 C 127.515625 16.765625 121.871094 26.691406 121.832031 27.878906 C 119.625 27.878906 117.882812 27.878906 115.847656 27.878906 "/>
</g>
</svg>

<svg xmlns="http://www.w3.org/2000/svg" width="176pt" height="42.947" viewBox="0 0 176 32.21"><path d="M0 31.703s134.305-.082 134.941-.105c.637-.024 2.426.195 5.918-2.254 3.82-2.672 24.446-27.242 24.446-27.242S166.449.957 167.09.574c.633-.379 1.398-.57 2.355-.57H176l-8.977 32.082L0 32.21z" style="stroke:none;fill-rule:nonzero;fill:#23396d;fill-opacity:1"/><path d="M164.16 14.582s2.195.965 1.336 3.117c-.89 2.227-10.375 3.434-11.012 4.903-.484 1.113 3.438 1.59 3.438 1.59s-5.73.062-4.645-2.356c.989-2.211 10.301-2.871 11.266-4.074 1.27-1.59-.383-3.18-.383-3.18" style="stroke:none;fill-rule:nonzero;fill:#9f1736;fill-opacity:1"/><path d="m163.863 27.05-1.734-1.343-1.723 1.25.223-2.176-1.961-.941 1.953-.832-.242-2.188 1.734 1.348 1.723-1.25-.223 2.176 1.965.941-1.957.828zM167.848 20.867l-.868-.347-.554.714-.168-.914-.91-.152.699-.57-.36-.864.868.344.554-.71.168.91.91.152-.695.57zM159.785 30.09l-.808-.578-.758.597.058-.988-.906-.39.871-.415-.148-.984.808.578.758-.598-.058.989.906.39-.871.414zM161.633 15.133l-.813-.578-.757.593.062-.988-.906-.39.87-.41-.148-.989.809.582.754-.598-.059.989.907.39-.868.41zM155.563 19.871l-.954-.11-.355.86-.418-.863-.945.094.535-.758-.594-.762.953.105.356-.863.418.867.945-.093-.535.757z" style="stroke:none;fill-rule:nonzero;fill:#fff;fill-opacity:1"/><path d="M164.16 14.582s2.41.852 1.524 2.988c-.762 1.848-10.438 3.184-11.075 4.649-.484 1.113 3.313 1.972 3.313 1.972s-5.434-.52-4.649-2.355c.957-2.23 10.707-3.254 11.586-4.52 1.145-1.652-.699-2.734-.699-2.734" style="stroke:none;fill-rule:nonzero;fill:#aba8b4;fill-opacity:1"/><path d="M14.512 24.32s-.492.871-.676 1.145c-.254.383-1.106.297-1.106.297H8.02s-.422-.086-.422-.383c0-.293.382-1.059.382-1.059l1.442-2.93s.469-.765.851-1.019c.38-.254 1.059-.21 1.059-.21h5.559Zm9.547-9.804c-.38-1.102-2.036-.977-2.036-.977H9.422l-1.613 2.336s.847-.215 1.355-.215h8.277s.891.043 1.23.215c.36.18.169.594.169.594l-.852 1.527-8.187-.043s-1.356-.086-3.012.676c-1.656.766-4.965 6.285-4.496 8.574.168.836 1.781.676 1.781.676h7.551c.297 0 .934-.082 1.992-1.524-.039.766-.254 1.524-.254 1.524h4.84c-.172-1.313 3.961-7.61 5.516-11.328.308-.73.61-1.262.34-2.035M21.387 27.879c.851-.973 1.488-2.285 1.488-2.285l5.602-10.614s.421-.718.378-1.44h5.774l-6.492 11.925s-.977 1.484-.89 2.414zM30.215 12.184c.719-1.274 1.273-2.25 1.781-3.48 1.57.042 3.27 0 5.008 0-.383.808-1.36 2.331-1.867 3.437-1.317.043-3.735.043-4.922.043M86.102 27.879c.89-1.016 1.144-1.356 1.316-1.734.277-.63 5.867-11.028 5.984-11.29.297-.68.336-1.316.336-1.316h5.219l-.633 1.36s1.39-1.36 2.418-1.36h4.965l-1.402 3.012s-5.43-.465-6.45.043c-.98.492-5.082 9.101-5.261 9.465-.172.34-.469 1.062-.383 1.82zM30.934 27.879c.894-1.016 1.148-1.356 1.32-1.734.277-.63 5.867-11.028 5.98-11.29.297-.68.34-1.316.34-1.316h5.219l-.637 1.36s1.395-1.36 2.418-1.36h4.965l-1.398 3.012s-5.434-.465-6.45.043c-.98.492-5.082 9.101-5.265 9.465-.168.34-.465 1.062-.38 1.82zM45.066 27.879c.637-.633 1.77-2.348 1.614-2.074-.512.886 5.347-10.227 5.683-10.864.325-.605.469-1.402.469-1.402h5.348l-.637 1.23s1.23-1.23 1.906-1.23h7.387s1.613-.168 1.953.977c.586 1.984-4.375 8.996-5.644 12.093-.176.426-.254 1.274-.254 1.274h-6.114s.715-.61.891-.89c.512-.805 5.219-9.759 5.219-9.759s.511-.765.297-1.105c-.23-.371-.676-.254-.676-.254H58.39s-.766-.082-1.02.086c-.336.223-.637.89-.637.89s-4.754 8.657-4.879 9.04c-.128.382-.636 1.144-.55 1.992-2.97-.004-6.239-.004-6.239-.004M83.598 16.766l-4.118 7.636s-.226.442-.55.766a1.67 1.67 0 0 1-.766.426h-5.262s-.297 0-.34-.34c-.03-.285.215-.68.215-.68l4.285-7.937s.13-.383.512-.637c.38-.254 1.059-.125 1.059-.125h4.328s.594-.086.766.125c.168.215-.13.766-.13.766m5.39-2.461c-.593-.793-2.125-.766-2.125-.766h-9.59s-2.007.055-3.054.637c-1.528.851-2.25 2.078-2.25 2.078l-4.117 7.43s-1.102 2.035-.805 3.136c.3 1.117 1.867 1.063 1.867 1.063H79.48s1.403.215 3.48-1.145c1.153-.754 2.08-2.93 2.08-2.93l3.944-7.34c.004 0 .508-1.484.004-2.163M109.734 13.54l1.532-2.888 5.515-.718-1.953 3.605h5.219l-1.063 2.125h-5.218l-4.668 8.867s-.305.426-.25.723c.039.254.465.34.465.34s3.269.082 5.687-.258c-.852 1.187-1.7 2.543-1.7 2.543h-8.019s-1.535.23-1.867-1.016c-.34-1.273.512-2.547.512-2.547l4.754-8.656h-3.016l1.191-2.12zM115.848 27.879c1.273-1.399 10.437-18.965 10.566-19.602h5.43l-3.27 6.493s.64-.68 1.02-.934c.383-.254 1.277-.254 1.277-.254h6.578s1.512-.258 1.95.762c.382.89-.254 2.25-.254 2.25s-5.645 10.484-5.727 11.285h-5.898c.593-.676 6.109-11.027 6.109-11.027s.406-.598.254-.809c-.211-.297-.512-.254-.512-.254h-4.75s-.426.043-.637.254c-.21.21-.468.723-.468.723s-5.645 9.925-5.684 11.113z" style="stroke:none;fill-rule:nonzero;fill:#23396d;fill-opacity:1"/></svg>
